X:1
T:Title
%%score { ( 1 3 4 ) | ( 2 5 6 ) }
L:1/8
Q:1/4=100
M:4/4
K:F
V:1 treble nm="Grand Piano"
V:3 treble 
V:4 treble 
V:2 treble 
V:5 treble 
V:6 treble 
V:1
 A2 A2 A2 A2 | AGAB [Ac]2 [FA]2 | [EG]2 [EG]2 [EG]2 [GB]2 | AGFG A4 | A2 A2 A2 A2 | %5
w: W.~A.~Ogden * * *|||||
 AGAB [Ac]2 [FA]2 | [EG][FA][GB][^FA] [GB]2 [B,EG]2 | [A,F]6 z2 | [B,D]2 [B,D]2 [DFB]2 [FBd]2 | %9
w: ||||
 [Ac]2- [CAc]2 A4 | [EG][FA][GB][^FA] [GB]2 [EG]2 | [FA][GB][Ac][_A=B] [=Ac]2 [CFA]2 | %12
w: |||
 [B,D]2 [B,D]2 [DFB]2 [FBd]2 | [Ac]2- [CAc]2 A4 | z4 B2 G2 | F6 z2 |] %16
w: ||||
V:2
 [F,CF]2 [F,CF]2 [F,CF]2 [F,CF]2 | [F,CF][B,CE][A,CF][G,CG][K:bass] [F,C]2 [F,C]2 | %2
 [C,C]2 [C,C]2 [C,C]2 [C,C]2 | [F,CF][F,B,C][F,A,][K:treble][F,B,F] [F,CF]4 | %4
 [F,CF]2 [F,CF]2 [F,CF]2 [F,CF]2 | [F,CF][B,CE][A,CF][G,CG][K:bass] [F,C]2 [F,C]2 | %6
 [C,C][C,C][C,C][C,C] [C,C]2 C,2 | F,6 z2 | B,,2 B,,2 B,,2 B,,2 | F,2 F,2 [F,CF]4 | %10
 [C,C][C,C][C,C][C,C] [C,C]2 [C,C]2 | [F,C][F,C][F,F][F,F] [F,F]2 F,2 | B,,2 B,,2 B,,2 B,,2 | %13
 F,2 F,2 [F,CF]4 | z4 G2 z2 | [F,A,]6 z2 |] %16
V:3
 x8 | x8 | x8 | x8 | x8 | x8 | x8 | x8 | F4 z4 | F2 z2 z4 | x8 | x8 | F4 z4 | F2 z2 z4 | %14
 [EG][FA][GB][^FA] z2 z B, | x8 |] %16
V:4
 x8 | x8 | x8 | x8 | x8 | x8 | x8 | x8 | x8 | x8 | x8 | x8 | x8 | x8 | z4 z .C3 | x8 |] %16
V:5
 x8 | x4[K:bass] x4 | x8 | x3[K:treble] x5 | x8 | x4[K:bass] x4 | x8 | x8 | x8 | x8 | x8 | x8 | %12
 x8 | x8 | [C,C][C,C] .[C,C]2 z2 E2 | x8 |] %16
V:6
 x8 | x4[K:bass] x4 | x8 | x3[K:treble] x5 | x8 | x4[K:bass] x4 | x8 | x8 | x8 | x8 | x8 | x8 | %12
 x8 | x8 | z2 z [C,C]- [C,C] .C,3 | x8 |] %16

